X: 162
%
U:~=!turn!
T: Earl Marischal
C:
O:Scotland
B:Keith Norman MacDonald : "The Skye collection of the best reels & strathspeys extant" : 1887
Z:Ralph Palmer
R:Reel
M:C|
L:1/8
K:F
A !segno!|TF2 (FA) cAAB | (A/B/c) (FA) cAAf | ~F2 (FA) cAAc | dfcA G/G/G G:| g | (f/g/a) (fc) d2 (df) | cfAf cfAf |
(a/g/f/e/) fc Td2 df | cAfd cAGg | (f/g/a) (fc) Td2 (df) | cfAf cfAf | (a/g/f/e/) fc defd | cAfd cAGA !segno!|]


